svgs/duotone/face-raised-eyebrow.svg

<svg xmlns="http://www.w3.org/2000/svg" viewBox="0 0 512 512"><!--! Font Awesome Pro 6.4.2 by @fontawesome - https://fontawesome.com License - https://fontawesome.com/license (Commercial License) Copyright 2023 Fonticons, Inc. --><path class="fa-primary" style="fill:var(--fa-primary-color,inherit);opacity:var(--fa-primary-opacity,1);" d="M328.8 141.8c10.7-10.7 28.5-8.9 36.9 3.7l4.9 7.4c4.9 7.4 14.8 9.3 22.2 4.4s9.3-14.8 4.4-22.2l-4.9-7.4c-19.6-29.4-61.2-33.5-86.2-8.5l-29.5 29.5c-6.2 6.2-6.2 16.4 0 22.6s16.4 6.2 22.6 0l29.5-29.5zM128 144c-8.8 0-16 7.2-16 16s7.2 16 16 16h64c8.8 0 16-7.2 16-16s-7.2-16-16-16H128zm80.4 96a32 32 0 1 0 -64 0 32 32 0 1 0 64 0zm160 0a32 32 0 1 0 -64 0 32 32 0 1 0 64 0z"/><path class="fa-secondary" style="fill:var(--fa-secondary-color,inherit);opacity:var(--fa-secondary-opacity,.4);" d="M0 256a256 256 0 1 1 512 0A256 256 0 1 1 0 256zm208.4-16a32 32 0 1 0 -64 0 32 32 0 1 0 64 0zm128 32a32 32 0 1 0 0-64 32 32 0 1 0 0 64zM144 352c0 8.8 7.2 16 16 16H352c8.8 0 16-7.2 16-16s-7.2-16-16-16H160c-8.8 0-16 7.2-16 16zM328.8 141.8c10.7-10.7 28.5-8.9 36.9 3.7l4.9 7.4c4.9 7.4 14.8 9.3 22.2 4.4s9.3-14.8 4.4-22.2l-4.9-7.4c-19.6-29.4-61.2-33.5-86.2-8.5l-29.5 29.5c-6.2 6.2-6.2 16.4 0 22.6s16.4 6.2 22.6 0l29.5-29.5zM128 144c-8.8 0-16 7.2-16 16s7.2 16 16 16h64c8.8 0 16-7.2 16-16s-7.2-16-16-16H128z"/></svg>

<svg xmlns="http://www.w3.org/2000/svg" viewBox="0 0 512 512"><!--! Font Awesome Pro 6.1.1 by @fontawesome - https://fontawesome.com License - https://fontawesome.com/license (Commercial License) Copyright 2022 Fonticons, Inc. --><defs><style>.fa-secondary{opacity:.4}</style></defs><path class="fa-primary" d="M299.3 171.3C293.1 177.6 282.9 177.6 276.7 171.3C270.4 165.1 270.4 154.9 276.7 148.7L306.2 119.2C331.2 94.2 372.8 98.32 392.4 127.7L397.3 135.1C402.2 142.5 400.2 152.4 392.9 157.3C385.5 162.2 375.6 160.2 370.7 152.9L365.8 145.5C357.4 132.9 339.5 131.1 328.8 141.8L299.3 171.3zM192 144C200.8 144 208 151.2 208 160C208 168.8 200.8 176 192 176H128C119.2 176 112 168.8 112 160C112 151.2 119.2 144 128 144H192zM208.4 240C208.4 257.7 194 272 176.4 272C158.7 272 144.4 257.7 144.4 240C144.4 222.3 158.7 208 176.4 208C194 208 208.4 222.3 208.4 240zM368.4 240C368.4 257.7 354 272 336.4 272C318.7 272 304.4 257.7 304.4 240C304.4 222.3 318.7 208 336.4 208C354 208 368.4 222.3 368.4 240z"/><path class="fa-secondary" d="M512 256C512 397.4 397.4 512 256 512C114.6 512 0 397.4 0 256C0 114.6 114.6 0 256 0C397.4 0 512 114.6 512 256zM176.4 208C158.7 208 144.4 222.3 144.4 240C144.4 257.7 158.7 272 176.4 272C194 272 208.4 257.7 208.4 240C208.4 222.3 194 208 176.4 208zM336.4 272C354 272 368.4 257.7 368.4 240C368.4 222.3 354 208 336.4 208C318.7 208 304.4 222.3 304.4 240C304.4 257.7 318.7 272 336.4 272zM160 368H352C360.8 368 368 360.8 368 352C368 343.2 360.8 336 352 336H160C151.2 336 144 343.2 144 352C144 360.8 151.2 368 160 368zM328.8 141.8C339.5 131.1 357.4 132.9 365.8 145.5L370.7 152.9C375.6 160.2 385.5 162.2 392.9 157.3C400.2 152.4 402.2 142.5 397.3 135.1L392.4 127.7C372.8 98.32 331.2 94.2 306.2 119.2L276.7 148.7C270.4 154.9 270.4 165.1 276.7 171.3C282.9 177.6 293.1 177.6 299.3 171.3L328.8 141.8zM128 144C119.2 144 112 151.2 112 160C112 168.8 119.2 176 128 176H192C200.8 176 208 168.8 208 160C208 151.2 200.8 144 192 144H128z"/></svg>
